X:1
T:Ariettes Oubliées
T:Green
T:5. Green
T:Claude Debussy
T:Paul Verlaine
T:Ariettes Oubliées
T:OpenScore (CC0)
T:OpenScore (CC0)
T:OpenScore (CC0)
T:OpenScore (CC0)
T:OpenScore (CC0)
T:OpenScore (CC0)
C:Claude Debussy
Z:Paul Verlaine
Z:OpenScore (CC0)
%%score 1 { ( 2 5 7 ) | ( 3 4 6 ) }
L:1/8
Q:1/4=112
M:6/8
K:Gb
V:1 treble nm="Voice"
V:2 treble nm="Piano"
V:5 treble 
V:7 treble 
V:3 bass 
V:4 bass 
V:6 bass 
V:1
"^Allegro moderato" z6 | z6 | z6 | z6 |!p! (2:3:2z"^joyeux et tendre" A (2:3:2(B c) | %5
w: ||||Voi- ci des|
 (2:3:2(c e) e2!<(! (e | a2!<)! e cB!>(! c | B3!>)! A2) z | %8
w: fruits des fleurs, des|feuil- les, et * des|bran- ches|
 (2:3:2z!p! (!tenuto!A (2:3:2!tenuto!c!tenuto!e | (2:3:2!tenuto!B!tenuto!d !tenuto!e3) | %10
w: Et puis voi-|ci mon coeur|
 z f e[Q:1/4=95]"^T" d"^dim." =c e | (B3 A3) | %12
w: qui ne bat que pour|vous _|
"_a Tempo""^a Tempo"[Q:1/4=112]"^T" (2:3:2z!f! (!tenuto!=G (2:3:2!tenuto!=A !tenuto!=B | %13
w: Ne le dé-|
 (2:3:2!tenuto!^c !tenuto!=d e3) | (2:3:2z (!tenuto!=G (2:3:2!tenuto!=A !tenuto!=B) | %15
w: chi- rez pas|a- vec vos|
!<(! (2:3:2^c =e (2:3:2(=g!<)! g) | (2:3:2z!p!"^dim." (f (2:3:2e =c | %17
w: deux mains blanches, *|Et qu'à vos|
 (2:3:2B =c[Q:1/4=95]"^T""^dim." E3-) | E (E A F A B | B2) z z3 | z6 | z6 | z6 || %23
w: yeux si beaux|_ l'hum- ble pré- sent soit|doux.||||
[K:Db]!p! (2:3:2z (A (2:3:2B d | (2:3:2f d (2:3:2B G) | (G2 C GA B | c3 B2) z | %27
w: J'ar- ri- ve|tout cou- vert en-|co- re de _ ro-|sé- e|
 z (.A .A B!<(! B B!<)! |!<(! .d .d .d!<)! ._c!>(! .c .c)!>)! |!p! B6- | B2 z z2 z | %31
w: Que le vent du ma-|tin vient gla- cer à mon|front|_|
"^Un peu retenu"[Q:1/4=105]"^T" (2:3:2z!p! (B (2:3:2fd |!>(! (2:3:2c =G (2:3:3F!>)!F/) z/ | %33
w: Souf- frez que|ma fa- ti- gue|
 z (=G B G F!>(! G |!>(! E3 =D2)!>)!!>)! z | (2:3:2z!p!"^tendre" (D (2:3:2=E!<(! F | %36
w: à vos pieds re- po-|sé- e|Rê- ve des|
 (2:3:2=A f (2:3:2=e!<)! =d |"^Encore plus retenu"[Q:1/4=93]"^T"!>(! (2:3:2_d B (2:3:2_A!>)! F) | %38
w: chers ins- tants qui|la dé- las- se-|
 F3- F z2 ||[K:Gb]"^Andantino"[Q:1/4=88]"^T" z6 | z6 |!p! (2:3:2z"^caressant" (A (2:3:2B c | %42
w: rout. _|||Sur vo- tre|
 (2:3:2c e e2) (e | a2 e cB c | B3 A3) | (2:3:2z!>(! (!tenuto!A (2:3:2!tenuto!c !tenuto!e | %46
w: jeu- ne sein, lais-|sez rou- ler * ma|tê- te|Tou- te so|
 (2:3:2!tenuto!B !tenuto!d (!tenuto!e2)!>)! e) | z!p!"^rit."[Q:1/4=80]"^T"!>(! (f e d c e!>)! | %48
w: nore en- co- re|de vos der- niers bai-|
 g3-) g2 z |!pp![Q:1/4=70]"^T" z"^d'une voix sommeillante.""^Plus lent." (G G F F F | G G G F F F | %51
w: sers _|Lais- sez la s'a- pai-|ser de la bon- ne tem-|
 B3-) B2 z |!pp![Q:1/4=60]"_T" (2:3:2z !tenuto!G (2:3:2!tenuto!F !tenuto!E | %53
w: pê- te,|Et que je|
 (2:3:2!tenuto!E !tenuto!F !tenuto!E3 | z D D D D D | D6- | D2 z z3 | z6 |] %58
w: dorme un peu|Puis- que vous re- po-|sez.|_||
V:2
!pp! z ([ee'][Aa])"_leggierissimo" z ([ee'][aa']) | z ([ee'][Aa]) z ([ee'][aa']) | %2
!pp! z ([ee'][Aa]) z ([ee'][aa']) | z ([ee'][Aa]) z ([ee'][aa']) | %4
!pp! z ([ee'][Aa]) z ([ee'][aa']) | z ([ee'][Aa]) z ([ee'][aa']) | %6
!pp! z ([ee'][Aa]) z ([ee'][aa']) | z ([ee'][Aa]) z ([ee'][aa']) | z!>(! (.e.A !tenuto!.e3)!>)! | %9
 [_B,D]6 | z!>(! (.e.A"^dim." .e3)!>)! | z3 z AD |!pp! =A6 | A3-!p! (A.=c.B |!pp! =A6-) | %15
 A3- (A.=c.B |!pp! =C6-) | C6!ppp! | a2 z z3 |!pp! z ([dd'][Gg]) z ([dd'][gg']) | %20
 z ([dd'][Gg]) z ([dd'][gg']) |!pp! z ([dd'][Gg]) z ([dd'][gg']) | z ([dd'][Gg]) z ([dd'][gg']) || %23
[K:Db]!pp!!8va(! !>!a'/d'/ a2!8va)! !>!d'/g/ d2 |!8va(! !>!a'/d'/ a2!8va)! !>!d'/g/ d2 | %25
 z!pp! (G/!<(!A/B/c/ g/a/b/c'/!8va(!g'/a'/)!<)! |!>(! (b'/a'/g'/c'/b'/a'/ g'/!>)!c'/b/a/g)!8va)! | %27
!8va(! a'/d'/ a2!8va)! d'/g/!<(! d2 |!8va(! a'/d'/ a2 g'/!<)!_c'/ g2!8va)! | %29
 z!pp! (A/!<(!B/c/=d/ a/b/c'/=d'/!8va(!a'/b'/)!<)! | %30
!>(! (c''/b'/a'/=d'/c''/b'/ a'/!>)!=d'/c'/b/a)!8va)! | z z (=g"_m.g."!>(! c'3)!>)! | %32
 (2:3:2z !tenuto!.=g (2:3:2z !tenuto!.f | z z (!tenuto!.=g"_m.g." !tenuto!.c'3) | %34
 (2:3:2z !tenuto!.g (2:3:2z .g | [=B,F=A]6- | [B,FA]6 | z"^dim." (bf)"_m.g." z (bf') | %38
 z (bf) z (BF) ||[K:Gb]!p! z ([ee'][Aa]) z ([ee'][aa']) | z ([ee'][Aa]) z ([ee'][aa']) | %41
!pp! z ([ee'][Aa]) z ([ee'][aa']) | z ([ee'][Aa]) z ([ee'][aa']) | z ([ee'][Aa]) z ([ee'][aa']) | %44
 z ([ee'][Aa]) z ([ee'][aa']) |!p!!>(! z (!tenuto!.e!tenuto!.A !tenuto!.e3)!>)! | [B,D]6 | %47
"^rit."!p!!>(! z eA e3!>)! | z (be"_m.g." b3) |!>(! ([EG]3!>)! [=DA]3) |!>(! ([EG]3!>)! [=DA]3) | %51
"^molto"!<(! [B,G]6 |"^rit.     morendo." (2:3:2B,E(2:3:2GB-!<)! | (2:3:2(Bc(2:3:2de) | %54
 (2:3:2([Fcf][cc'] (2:3:2[Bf-b][Afa] |!ppp!!8va(! [ab-d'-a']6 | %56
 [gbd'g']3)!8va)![K:bass]!ppp! [D,B,]3- | [D,B,]2 z z3 |] %58
V:3
 (2:3:2([A,,E,][A,CE]-)!<(! ([A,-C-E]3 | _F3 =F3)!<)! | (2:3:2([A,,E,][A,CE]-)!<(! ([A,-C-E]3 | %3
 _F3 =F3)!<)! | (2:3:2([A,,E,][A,CE]-)!<(! ([A,CE]3 | _F3 =F3)!<)! | %6
 (2:3:2([A,,E,][A,CE]-)!<(! ([A,-C-E]3 | _F3 =F3)!<)! | (F,6 | _F,6) | F,6 | z"^dim." (G,D, A,3) | %12
{/=A,,,} !>!=A,,6- |!p! A,,3 [E,,B,,]3 |{/=A,,,} !>!=A,,6- | =A,,3 [E,,B,,]3 | E,6- | E,6 | %18
 (E3 __E3) | (2:3:2([G,,D,][G,B,D]-) ([G,-B,-D]3 |!<(! __E3 _E3)!<)! | %21
 (2:3:2([G,,D,][G,B,D]-)!<(! ([G,-B,-D]3 | __F3 _E3)!<)! || %23
[K:Db] z[K:treble] [df]/A/F z [GB]/D/B, | z [df]/A/F z [GB]/D/B, | %25
[K:bass] z z[K:treble]!<(! (C!<)! F3-) | A3 ([B,DG]2 [A,C]) | %27
[K:bass]!pp! z[K:treble] [df]/A/F z [FA]/D/B, |!pp! z [df]/A/F z [_ce]/_G/E | %29
[K:bass] z z[K:treble] (=D =G3-) | [AB=d]3 ([C=DA]2 [B,D]) |[K:bass]!p! (([E,,B,,]6 | [A,,E,]6)) | %33
!p! (([E,,B,,]6 | E,3)) =D,3 |!pp! [=G,,=D,]6- | [G,,D,]6 |!p! [D,,_D,]6 | (D3 =D3) || %39
[K:Gb] (2:3:2([A,,E,][A,CE]-)!<(! [A,-C-E]3 | _F3 =F3!<)! | (2:3:2([A,,E,][A,CE]-)!<(! ([A,-C-E]3 | %42
 _F3 =F3)!<)! | (2:3:2([A,,E,][A,CE]-)!<(! (([A,CE]3 | _F3) =F3)!<)! | F,6 | %46
 z (!tenuto!.__A,!tenuto!.D, !tenuto!.A,3) | =F,6 | [_F,B,]6 |!pp! ([C,G,]3 [B,,F,]3) | %50
!pp! ([C,G,]3 [B,,F,]3) |!pp! (2:3:2z E,(2:3:2F,G,- | G,6 |!pp! [A,,,A,,]6 | (E3 [DF]3) | %55
 (2:3:2z[K:treble] .D(2:3:2.B.d- | d3[K:bass] G,,3- | G,,2 z z3 |] %58
V:4
 x3 E,3- | [E,A,C]6 | x3 E,3- | [E,A,C]6 | x3 E,3 | [E,A,C]6 | x3 E,3- | [E,A,C]6 | ([D,,A,,]6 | %9
 G,,6) | [D,,A,,]6 | _F,6 | x6 | x6 | x6 | x6 | [A,,,A,,]6- | [A,,,A,,]6 | [D,_C]6 | x3 D,3- | %20
 [D,G,B,]6 | x3 D,3- | [D,G,B,]6 ||[K:Db] [D,,A,,]6[K:treble] | x6 |[K:bass] [A,,,E,,]6[K:treble] | %26
 [Gc]3 x3 |[K:bass] [D,,A,,]6[K:treble] | x6 |[K:bass] [B,,,F,,]6[K:treble] | =G2 =D F,3 | %31
[K:bass] x6 | x6 | x6 | A,,6 | x6 | x6 | x6 | [A,C]6 ||[K:Gb] x3 E,3- | [E,A,C]6 | x3 E,3- | %42
 [E,A,C]6 | x3 E,3- | [E,A,C]6 | [D,,A,,]6 | _F,6 | [D,,A,,]6 | G,,6 | x6 | x6 | [E,,B,,]6- | %52
 [E,,B,,]6 | x6 | [D,C]6 | (([G,,,D,,]6[K:treble] | [E,B,]3))[K:bass] G,,3 | G,,,2 x4 |] %58
V:5
 x6 | x6 | x6 | x6 | x6 | x6 | x6 | x6 | [CE]6 | x6 | [CE]6 | [B,D]6 | %12
 (=G[I:staff +1][=G,=A,^C])[I:staff -1] z (^F[I:staff +1][G,A,C])[I:staff -1] z | %13
 (2:3:2=F=E [=G,D_E]3 | %14
 (=G[I:staff +1][=G,=A,^C])[I:staff -1] z (^F[I:staff +1][G,A,C])[I:staff -1] z | %15
 (2:3:2=F=E [=G,D_E]3 | x6 | x6 | [F_c]6 | x6 | x6 | x6 | x6 ||[K:Db]!8va(! x3!8va)! x3 | %24
!8va(! x3!8va)! x3 | x5!8va(! x | x6!8va)! |!8va(! x3!8va)! x3 |!8va(! x6!8va)! | x5!8va(! x | %30
 x6!8va)! | (=G3 F3 | [CE]3 [_C=D]3) | =G3 F3 | [CE]3 [C=D]3 | x6 | x6 | (_B3 _A3) | x6 || %39
[K:Gb] x6 | x6 | x6 | x6 | x6 | x6 | [CE]6 | x6 | [CE]6 | E3 D3 | x6 | x6 | x6 | x6 | [CEG]6 | x6 | %55
!8va(! x6 | x3!8va)![K:bass] x3 | x6 |] %58
V:6
 x6 | x6 | x6 | x6 | x6 | x6 | x6 | x6 | x6 | x (.__A,.D, !tenuto!.A,3) | x6 | G,,6 | x6 | x6 | %14
 x6 | x6 | x6 | z z z/ A,/(2:3:4E/[I:staff -1]A/"^dim."=c/e/ | x6 | x6 | x6 | x6 | x6 || %23
[K:Db] x[I:staff +1][K:treble] x5 | x6 |[K:bass] x2[K:treble] x4 | F2 C E,3 | %27
[K:bass] x[K:treble] x5 | x6 |[K:bass] x2[K:treble] x4 | x6 |[K:bass] x6 | x6 | x6 | x6 | x6 | x6 | %37
 x6 | x6 ||[K:Gb] x6 | x6 | x6 | x6 | x6 | x6 | x6 | G,,6 | x6 | x6 | x6 | x6 | x6 | x6 | x6 | x6 | %55
 x3/2[K:treble] x9/2 | x3[K:bass] x3 | x6 |] %58
V:7
 x6 | x6 | x6 | x6 | x6 | x6 | x6 | x6 | x6 | x6 | x6 | x6 | x6 | x6 | x6 | x6 | x6 | x6 | x6 | %19
 x6 | x6 | x6 | x6 ||[K:Db]!8va(! x3!8va)! x3 |!8va(! x3!8va)! x3 | x5!8va(! x | x6!8va)! | %27
!8va(! x3!8va)! x3 |!8va(! x6!8va)! | x5!8va(! x | x6!8va)! | [=G,_D]6 | A,6 | [=G,_D]6 | A,6 | %35
 x6 | x6 | [_CF]6 | x6 ||[K:Gb] x6 | x6 | x6 | x6 | x6 | x6 | x6 | x6 | x6 | x6 | x6 | x6 | x6 | %52
 x6 | x6 | x6 |!8va(! x6 | x3!8va)![K:bass] x3 | x6 |] %58

